html/dist/img/svg/presentation.svg

<svg width="31" height="26" viewBox="0 0 31 26" fill="none" xmlns="http://www.w3.org/2000/svg">
<path d="M6.17857 1H24.8214M6.17857 1V25M6.17857 1H1V25H6.17857M24.8214 1V25M24.8214 1H30V25H24.8214M6.17857 25H24.8214M6.17857 7H1M1 13H30M6.17857 19H1M30 7H24.8214M30 19H24.8214" stroke="#FF4978" stroke-width="2" stroke-linecap="round" stroke-linejoin="round"/>
</svg>

<svg width="31" height="26" viewBox="0 0 31 26" fill="none" xmlns="http://www.w3.org/2000/svg"><path d="M6.179 1H24.82M6.18 1v24m0-24H1v24h5.179M24.82 1v24m0-24H30v24h-5.179M6.18 25h18.64M6.18 7H1m0 6h29M6.179 19H1M30 7h-5.179M30 19h-5.179" stroke="#FF4978" stroke-width="2" stroke-linecap="round" stroke-linejoin="round"/></svg>
